X:4012
L:1/8
M:3/4
K:C
 cc |:"C" c2 C2 C2 | C2 z2 G2 | G4 c2 | e2 dc BA |"G7" G6 | F4 G2 |"F" A4 c2 | f2 ed cB | A6 | 
"C" G4 G2 | G4 c2 | e2 dc Bc |"F" A2 c2 F2 | A2 gf ef |"C" g2 e2 c2 |"G7" f2 d2 B2 | d6 |1 
"C" c4 cc :|2"C" c4 G,2 |:"C" G^F GF GF |"G7" g2"_f" fd BG |"C" cG EG ce |"G7" g4 fd | 
"C" e2 c2 e2 | g2 e2 c2 |"G7" de dc BG |1"C" c4 G,2 :|2"C" c4 ef |:"C" G2 ce c2 | EG c2 GE | 
"G7" A2 G2 G2 |"C" F2 E2 E2 | G2 ce c2 | EG c2 GE |"G7" gg B2 c2 |1"C" c4 EF :|2"C" c4 GE |: 
"C" A2 G2 G2 |"G7" Bd BG Bd | G2 F2 F2 |"C" EG EG, CE | A2 G2 G2 |"G7" df dG Bd | g2 f2 f2 |1 
"C" e4 GE :|2"C" e4 z2 |]

